X:2914
T:Reinlender
C:anon.
O:Norway
R:Reinlender
Z:Transcribed by Frank Nordberg - http://www.musicaviva.com
F:http://abc.musicaviva.com/tunes/norway/reinlender/reinlender-1.abc
M:2/4
L:1/16
K:D
DFED A2A2|DFED f2f2|gfed cBA2|cBAG FED2|
DFED A2A2|DFED f2f2|gfed cABc|[1d2d2 d4:|[2d2d2 d2ef||
|:g2B2 Bgfe|efA2 Afed|c2EF GABc|[1d2F2 A2ef:|[2d2d2 d4|]
W:
W:
W:  From Musica Viva - http://www.musicaviva.com
W:  the Internet center for free sheet music downloads.

